!!!OTL:Kinderwacht.
!!!OTL-incipit:WENN FROMME KINDLEIN SCHLAFEN GEHN
!!!COM: R. Schumann
!!!ARE: Europa, Mitteleuropa, Deutschland
!!!SCT: F0282
!!!TXL: @@DE
!!!YEM: Copyright 1995, estate of Helmut Schaffrath.
**kern	**text
*ICvox	*
*M2/4	*
*k[b-]	*
*F:	*
!LO:TX:a:t=Einfach.	!
{8a	1._Wenn
=1	=1
8cc	fromme
8a	.
8g	Kind-
8d	-lein
=2	=2
8.f	schla-
16e	-fen
8e}	gehn,
{8c	an
=3	=3
8d	ih-
8e	-rem
8f	Bett
8e	zwei
=4	=4
8f	Englein
8g	.
8a	stehn,
8r}	.
=5	=5
{8cc	de-
16b-/	-cken
16a	sie
4g	zu
=6	=6
8cc/	decken
16b-/	.
16a	sie
4g}	auf,
=7	=7
{8f	haben
16e	.
16f	ein
8a	lie-
16g	-bendes
16d	.
=8	=8
8.g	Au-
16f	-ge
8f}	drauf.
==	==
!!!AGN: Jugend - Lied, religioes
!!!ONB: ESAC (Essen Associative Code) Database: FINK
!!!AMT: simple duple
!!!AIN: vox
!!!EED: Helmut Schaffrath
!!!EEV: 1.0
!!!source: Musikalischer Hausschatz der Deutschen. Eine Sammlung von über 1000 Liedern und Gesängen mit Singstimmen und Klavierbegleitung. Leipzig, Litterarisches Verlags-Haus.
!!!page: 169
!!!ENC: Anna Maria Matuszewska
!!!EEV: 2025/03/13
*-	*-
